assets/images/content/firstStage.svg

<svg width="137" height="135" viewBox="0 0 137 135" fill="none" xmlns="http://www.w3.org/2000/svg">
<path d="M102.389 23.7501C91.7184 12.0138 82.1302 1.45654 82.1302 1.45654L1.83135 1.45654L1.83134 67.3148" stroke="white" stroke-width="2" stroke-miterlimit="10" stroke-linecap="round" stroke-linejoin="round"/>
<path d="M135.972 67.3147C135.972 67.3147 136.741 61.3511 130.276 54.3652C128.99 52.9748 125.533 49.1922 121.035 44.251" stroke="white" stroke-width="2" stroke-miterlimit="10" stroke-linecap="round" stroke-linejoin="round"/>
<path d="M12.978 1.45654C12.978 1.45654 51.2016 51.3529 55.4479 56.9757C59.5241 62.3736 59.3336 67.3148 59.3336 67.3148" stroke="white" stroke-width="2" stroke-miterlimit="10" stroke-linecap="round" stroke-linejoin="round"/>
<path d="M82.1309 1.45654L47.1124 46.0504" stroke="white" stroke-width="2" stroke-miterlimit="10" stroke-linecap="round" stroke-linejoin="round"/>
<path d="M64.6218 23.75L121.028 23.75L121.028 67.3148" stroke="white" stroke-width="2" stroke-miterlimit="10" stroke-linecap="round" stroke-linejoin="round"/>
<path d="M71.5821 67.3149L106.172 67.3149L87.3561 48.47" stroke="white" stroke-width="2" stroke-miterlimit="10" stroke-linecap="round" stroke-linejoin="round"/>
<path d="M102.389 110.873C91.7184 122.609 82.1302 133.166 82.1302 133.166L1.83134 133.166L1.83135 67.3147" stroke="white" stroke-width="2" stroke-miterlimit="10" stroke-linecap="round" stroke-linejoin="round"/>
<path d="M135.972 67.3147C135.972 67.3147 136.741 73.2783 130.276 80.2642C128.99 81.6545 125.533 85.4371 121.035 90.3784" stroke="white" stroke-width="2" stroke-miterlimit="10" stroke-linecap="round" stroke-linejoin="round"/>
<path d="M12.978 133.166C12.978 133.166 51.2016 83.27 55.4479 77.6472C59.5241 72.2494 59.3336 67.3081 59.3336 67.3081" stroke="white" stroke-width="2" stroke-miterlimit="10" stroke-linecap="round" stroke-linejoin="round"/>
<path d="M82.1309 133.166L47.1124 88.5723" stroke="white" stroke-width="2" stroke-miterlimit="10" stroke-linecap="round" stroke-linejoin="round"/>
<path d="M64.6218 110.873L121.028 110.873L121.028 67.3147" stroke="white" stroke-width="2" stroke-miterlimit="10" stroke-linecap="round" stroke-linejoin="round"/>
<path d="M71.5821 67.3147L106.172 67.3147L87.3561 86.1528" stroke="white" stroke-width="2" stroke-miterlimit="10" stroke-linecap="round" stroke-linejoin="round"/>
</svg>

<svg width="137" height="135" fill="none" xmlns="http://www.w3.org/2000/svg"><path d="M102.389 23.75A72083.876 72083.876 0 0182.13 1.457H1.831v65.858m134.141 0s.769-5.964-5.696-12.95a2428.99 2428.99 0 01-9.241-10.114" stroke="#fff" stroke-width="2" stroke-miterlimit="10" stroke-linecap="round" stroke-linejoin="round"/><path d="M12.978 1.457s38.224 49.896 42.47 55.519c4.076 5.398 3.886 10.339 3.886 10.339M82.13 1.457L47.113 46.05m17.509-22.3h56.406v43.565m-49.446 0h34.59L87.356 48.47m15.033 62.403a72083.876 72083.876 0 00-20.259 22.293H1.831V67.315m134.141 0s.769 5.963-5.696 12.95a2433.83 2433.83 0 00-9.241 10.113" stroke="#fff" stroke-width="2" stroke-miterlimit="10" stroke-linecap="round" stroke-linejoin="round"/><path d="M12.978 133.166s38.224-49.896 42.47-55.519c4.076-5.398 3.886-10.339 3.886-10.339m22.796 65.858L47.113 88.572m17.509 22.301h56.406V67.315m-49.446 0h34.59L87.356 86.153" stroke="#fff" stroke-width="2" stroke-miterlimit="10" stroke-linecap="round" stroke-linejoin="round"/></svg>
